static/img/kroki/82ef046429ae72465ed5e51377986448.svg

<?xml version="1.0" encoding="us-ascii" standalone="no"?><svg xmlns="http://www.w3.org/2000/svg" xmlns:xlink="http://www.w3.org/1999/xlink" contentStyleType="text/css" height="213px" preserveAspectRatio="none" style="width:209px;height:213px;" version="1.1" viewBox="0 0 209 213" width="209px" zoomAndPan="magnify"><defs/><g><!--class resource--><g id="elem_resource"><rect codeLine="23" fill="#3D176E" height="39.7891" id="resource" rx="2.5" ry="2.5" style="stroke:#000D19;stroke-width:0.5;" width="113" x="48" y="7"/><ellipse cx="63" cy="26.8945" fill="#ADD1B2" rx="11" ry="11" style="stroke:#181818;stroke-width:1.0;"/><path d="M65.9688,32.5352 Q65.3906,32.832 64.75,32.9727 Q64.1094,33.1289 63.4063,33.1289 Q60.9063,33.1289 59.5781,31.4883 Q58.2656,29.832 58.2656,26.707 Q58.2656,23.582 59.5781,21.9258 Q60.9063,20.2695 63.4063,20.2695 Q64.1094,20.2695 64.75,20.4258 Q65.4063,20.582 65.9688,20.8789 L65.9688,23.5977 Q65.3438,23.0195 64.75,22.7539 Q64.1563,22.4727 63.5313,22.4727 Q62.1875,22.4727 61.5,23.5508 Q60.8125,24.6133 60.8125,26.707 Q60.8125,28.8008 61.5,29.8789 Q62.1875,30.9414 63.5313,30.9414 Q64.1563,30.9414 64.75,30.6758 Q65.3438,30.3945 65.9688,29.8164 L65.9688,32.5352 Z " fill="#000000"/><text fill="#D9B8FF" font-family="Helvetica" font-size="17" lengthAdjust="spacing" textLength="71" x="82" y="32.7798">resource</text></g><!--class vsphere_esxi_host--><g id="elem_vsphere_esxi_host"><rect codeLine="26" fill="#3D176E" height="39.7891" id="vsphere_esxi_host" rx="2.5" ry="2.5" style="stroke:#000D19;stroke-width:0.5;" width="195" x="7" y="167.79"/><ellipse cx="22" cy="187.6845" fill="#ADD1B2" rx="11" ry="11" style="stroke:#181818;stroke-width:1.0;"/><path d="M24.9688,193.3252 Q24.3906,193.622 23.75,193.7627 Q23.1094,193.9189 22.4063,193.9189 Q19.9063,193.9189 18.5781,192.2783 Q17.2656,190.622 17.2656,187.497 Q17.2656,184.372 18.5781,182.7158 Q19.9063,181.0595 22.4063,181.0595 Q23.1094,181.0595 23.75,181.2158 Q24.4063,181.372 24.9688,181.6689 L24.9688,184.3877 Q24.3438,183.8095 23.75,183.5439 Q23.1563,183.2627 22.5313,183.2627 Q21.1875,183.2627 20.5,184.3408 Q19.8125,185.4033 19.8125,187.497 Q19.8125,189.5908 20.5,190.6689 Q21.1875,191.7314 22.5313,191.7314 Q23.1563,191.7314 23.75,191.4658 Q24.3438,191.1845 24.9688,190.6064 L24.9688,193.3252 Z " fill="#000000"/><text fill="#D9B8FF" font-family="Helvetica" font-size="17" lengthAdjust="spacing" textLength="153" x="41" y="193.5698">vsphere_esxi_host</text></g><!--reverse link resource to vsphere_esxi_host--><g id="link_resource_vsphere_esxi_host"><path codeLine="29" d="M104.5,65.05 C104.5,95.57 104.5,136.9 104.5,167.46 " fill="none" id="resource-backto-vsphere_esxi_host" style="stroke:#FFAF37;stroke-width:2.0;"/><polygon fill="none" points="104.5,47.05,98.5,65.05,110.5,65.05,104.5,47.05" style="stroke:#FFAF37;stroke-width:2.0;"/></g><!--SRC=[XT1DRuCm30RWExyYKiz8i6gZIBjqIDDsgQPrzoeGfqH0WkpGhlluxokZgpBIZwlz97xjKWbWqBHsnnfeSa0Ag5AwvSWRDaSqsypK1jb4IYwdoRZvQBIz2XQy0VO4zGQiAlXOl9Mgg3GGiHkdzS2BQescqsButYBNj6-1jexAQauqjnPLtbbmmeWqdqavbkDF9rCH9tVWCOC2y42YA19nEYPNHrtS-oYMwWDOx1vjOInuCRqHl-fYobuu8Rr5__fdCxvm8PHUirkdzZfaGWtuhxuikJ3RNajUapk6B20OksiXyxQ2T2PaSX8_dyD1qP-E8P3fi03s6GJVXzg6sdB_VWNqhbQb8JiqZ_J-Amn3NmK_]--></g></svg>

<svg xmlns="http://www.w3.org/2000/svg" width="209" height="213" viewBox="0 0 209 213"><rect width="113" height="39.789" x="48" y="7" fill="#3D176E" rx="2.5" ry="2.5" style="stroke:#000d19;stroke-width:.5"/><circle cx="63" cy="26.895" r="11" fill="#ADD1B2" style="stroke:#181818;stroke-width:1"/><path d="M65.969 32.535q-.578.297-1.219.438-.64.156-1.344.156-2.5 0-3.828-1.64-1.312-1.657-1.312-4.782t1.312-4.781q1.328-1.656 3.828-1.656.703 0 1.344.156.656.156 1.219.453v2.719q-.625-.578-1.219-.844-.594-.281-1.219-.281-1.343 0-2.031 1.078-.687 1.062-.687 3.156t.687 3.172q.688 1.062 2.031 1.062.625 0 1.219-.265.594-.281 1.219-.86z"/><text x="82" y="32.78" fill="#D9B8FF" font-family="Helvetica" font-size="17" textLength="71">resource</text><rect width="195" height="39.789" x="7" y="167.79" fill="#3D176E" rx="2.5" ry="2.5" style="stroke:#000d19;stroke-width:.5"/><circle cx="22" cy="187.685" r="11" fill="#ADD1B2" style="stroke:#181818;stroke-width:1"/><path d="M24.969 193.325q-.578.297-1.219.438-.64.156-1.344.156-2.5 0-3.828-1.64-1.312-1.657-1.312-4.782t1.312-4.781q1.328-1.656 3.828-1.656.703 0 1.344.156.656.156 1.219.453v2.719q-.625-.578-1.219-.844-.594-.281-1.219-.281-1.343 0-2.031 1.078-.687 1.062-.687 3.156t.687 3.172q.688 1.062 2.031 1.062.625 0 1.219-.265.594-.281 1.219-.86z"/><text x="41" y="193.57" fill="#D9B8FF" font-family="Helvetica" font-size="17" textLength="153">vsphere_esxi_host</text><path fill="none" d="M104.5 65.05v102.41m0-120.41-6 18h12z" style="stroke:#ffaf37;stroke-width:2"/></svg>
